X: 36688
T: She Lhong Honnick Mee
R: reel
M: 4/4
K: Gmajor
D2|G4 B2 G2|A4 c2 A2|G4 F2 DD|G4 B2 c2|d4 c2 B2|B5 D2|
G4 B2 G2|A4 c2 A2|G4 F2 D2|G4 B2 c2|d4 c3B|B5 BB|
A3A B2 c2|d4 G2 F2|G4 F2 D2|G3A B2 d2|c3B A2 A2|G8|G5||

